X:1
T:James Gibb editions
T:Which is the properest day to sing - Arne
T:#
%%score [ 1 2 3 4 ]
L:1/8
Q:1/4=108
M:6/8
K:F
V:1 treble nm="Soprano" snm="S"
V:2 treble nm="Alto" snm="A"
V:3 treble nm="Tenor" snm="T"
V:4 treble nm="Bass" snm="B"
V:1
"^Spiritoso"!f! FEF GG"^Which is the properest day to sing?"A | B2 A G3 | AGA B2 A | %3
w: Which is the pro- per- est|day to sing?|Sa- tur- day, Sun- day,|
"^Thomas Arne\n(1710-78)" A3 G3 |!pp! FEF GGA | B2 A G3 | AGA B2 A | A3 G3 ||[M:6/8] z6 | z6 | z6 | %11
w: Mon- day?|Which is the pro- per- est|day to sing?|Sa- tur- day, Sun- day,|Mon- day?||||
 z6 |[M:6/8] z6 | z6 | z6 | z6 |[M:6/8]!f! F>EF G2 A | B2 c d2 c | BAG c2 B | A3 G2 z |: %20
w: |||||Tell me but yours, I'll|men- tion my day,|Let us but fix on|some day.|
!p! F>EF G2 A | B2 c d2 c |!f! BAG c2 B | A3 G2 z | z3!p! F3 | z3 F3 |!f! c>cc c2 c | c3 C2 z | %28
w: Tell me but yours, I'll|men- tion my day,|Let us but fix on|some day.|Which?|Which?|Let us but fix on|some day.|
 z6 | z3 f2 e | f2 c z3 | z6 | f2 c d2 c | f2 c d2 c | BBA A2 G | A3 A2 z |!mf! c2 C z3 | c2 C z3 | %38
w: |Bra- vo!|Bra- vo!||Tues- day, Wednes- day,|Thurs- day, Fri- day,|Sa- tur- day, Sun- day,|Mon- day,|Tues- day,|Thurs- day,|
 ccC z z z | c3 c2 z |!f! f2 c d2 c | f2 c d2 c | %42
w: Sa- tur- day,|Mon- day|Tues- day, Wednes- day,|Thurs- day, Fri- day,|
[Q:1/4=108] B[Q:1/4=108]B"^rit. (second time only)"[Q:1/4=108]A[Q:1/4=108] A2[Q:1/4=108] G | %43
w: Sa- tur- day, Sun- day,|
[Q:1/4=108] A3[Q:1/4=108] A3 :| %44
w: Mon- day,|
V:2
!f! AGF FEF | G2 F E3 | FEF G2 F | F3 E3 |!pp! AGF FEF | G2 F E3 | FEF G2 F | F3 E3 ||[M:6/8] z6 | %9
w: Which is the pro- per- est|day to sing?|Sa- tur- day, Sun- day,|Mon- day?|Which is the pro- per- est|day to sing?|Sa- tur- day, Sun- day,|Mon- day?||
 z6 | z6 | z6 |[M:6/8] z6 | z6 | z6 | z6 |[M:6/8]!f! A>GF E2 F | G2 A B2 A | EFG F2 E | F3 C2 z |: %20
w: |||||||Tell me but yours, I'll|men- tion my day,|Let us but fix on|some day.|
!p! A>GF E2 F | G2 A B2 A |!f! EFG F2 E | F3 C2 z |!p! F3 z3 | C3 z3 |!f! F>GF E2 G | F3 F2 z | %28
w: Tell me but yours, I'll|men- tion my day,|Let us but fix on|some day.|Which?|Which?|Let us but fix on|some day.|
 z3 F2 E | F2 C z3 | F>EF A2 =B | c3 C3 | F2 A B2 A | c2 A B2 A | GCF F2 E | F3 F2 z | %36
w: Bra- vo!|Bra- vo!|Why should I name but|one day?|Tues- day, Wednes- day,|Thurs- day, Fri- day,|Sa- tur- day, Sun- day,|Mon- day,|
!p! A>GF FEF | G2 F E3 | FGA B2 A | A3 G2 z |!f! F2 A B2 A | c2 A B2 A | GCF F2 E | F3 F2 z :| %44
w: Which is the pro- er- est|day to sing?|Sa- tur- day, Sun- day,|Mon- day,|Tues- day, Wednes- day,|Thurs- day, Fri- day,|Sa- tur- day, Sun- day,|Mon- day,|
V:3
[K:C] z6 | z6 | z6 | z6 |[M:6/8] z6 | z6 | z6 | z6 ||[K:F][M:6/8][K:treble-8]!f! A>Bc dBA | %9
w: ||||||||Each to be sure, 'tis a|
 GAB c3 | A>GA B2 G | A3 A3 |!pp! A>Bc dBA | GAB c3 | A>GA B2 G | A3 A3 | z3!f! c3 | z6 | %18
w: migh- ty fine thing!|Why should I name but|one day?|Each to be sure, 'tis a|migh- ty fine thing!|Why should I name but|one day?|Why,||
 ccc c2 c | c3 C2 z |: z3!p! c3 | z3 f3 |!f! ccc c2 c | c3 C2 z |!p! A>Bc dBA | GAB c3 | %26
w: why should I name but|one day?|Why,|Why,|why should I name but|one day?|Each to be sure, 'tis a|migh- ty fine thing!|
!f! A>GA B2 G | A3 A2 z | c2 A d2 B | c2 A d2 B | c>BA f2 d | e3 c3 | A2 c f2 c | A2 c f2 F | %34
w: Why should I name but|one day?|Tues- day, Wednes- day|Thurs- day, Fri- day,|Sa- tur- day, Sun- day,|Mon- day,|Tues- day, Wednes- day,|Thurs- day, Fri- day,|
 ccc c2 c | c3 c2 z |!p! F>GA AGA | B2 A G3 | AGF G2 F | F3 E2 z |!f! A2 c f2 c | A2 c f2 F | %42
w: Sa- tur- day, Sun- day,|Mon- day,|Which is the pro- per- est|day to sing?|Sa- tur- day, Sun- day,|Mon- day,|Tues- day, Wednes- day,|Thurs- day, Fri- day,|
 ccc c2 c | c3 c3 :| %44
w: Sa- tur- day, Sun- day,|Mon- day,|
V:4
[K:C] z6 | z6 | z6 | z6 |[M:6/8] z6 | z6 | z6 | z6 ||[K:F][M:6/8][K:bass]!f! F,>G,A, B,G,F, | %9
w: ||||||||Each to be sure, 'tis a|
 E,F,G, A,3 | F,>E,F, G,2 E, | F,3 F,3 |!pp! F,>G,A, B,G,F, | E,F,G, A,3 | F,>E,F, G,2 E, | %15
w: migh- ty fine thing!|Why should I name but|one day?|Each to be sure, 'tis a|migh- ty fine thing!|Why should I name but|
 F,3 F,3 | z6 | z3!f! F,3 | G,F,E, A,2 G, | F,3 E,2 z |: z3!p! C,3 | z3 F,3 |!f! G,F,E, A,2 G, | %23
w: one day?||Why,|why should I name but|one day?|Why,|Why,|why should I name but|
 F,3 E,2 z |!p! F,>G,A, B,G,F, | E,F,G, A,3 |!f! F,>E,F, G,2 E, | F,3 F,2 z | A,2 F, B,2 G, | %29
w: one day?|Each to be sure, 'tis a|migh- ty fine thing!|Why should I name but|one day?|Tues- day, Wednes- day|
 A,2 F, B,2 G, | A,>G,F, D,2 G, | G,3 E,3 | F,2 F, F,2 F, | F,2 F, F,2 F, | E,E,F, C,2 C, | %35
w: Thurs- day, Fri- day,|Sa- tur- day, Sun- day,|Mon- day,|Tues- day, Wednes- day,|Thurs- day, Fri- day,|Sa- tur- day, Sun- day,|
 F,3 F,2 z | z2 z!mf! C2 C, | z2 z C2 C, | z2 z C2 C, | C3 C,2 z |!f! F,2 F, F,2 F, | %41
w: Mon- day,|Wednes- day,|Fri- day,|Sun- day,|Mon- day,|Tues- day, Wednes- day,|
 F,2 F, F,2 F, | E,E,F, C,2 C, | F,3 F,3 :| %44
w: Thurs- day, Fri- day,|Sa- tur- day, Sun- day,|Mon- day,|

